svgs/sharp-light/hand-sparkles.svg

<svg xmlns="http://www.w3.org/2000/svg" viewBox="0 0 640 512"><!--! Font Awesome Pro 6.6.0 by @fontawesome - https://fontawesome.com License - https://fontawesome.com/license (Commercial License) Copyright 2024 Fonticons, Inc. --><path d="M272 0l16 0 80 0 16 0 0 16 0 16 64 0 16 0 0 16 0 48s0 0 0 0l64 0 16 0 0 16 0 208-32 0 0-192-48 0 0 112 0 16-32 0 0-16 0-112s0 0 0 0l0-16 0-48-48 0 0 16 0 160 0 16-32 0 0-16 0-160 0-16s0 0 0 0l0-16 0-16-48 0 0 16 0 192 0 16-32 0 0-16 0-176-48 0 0 240 0 6.6-4.7 4.7L207.6 327l-11.3 11.3L185 327l-48-48-17-17-24 24 0 19.9 7 7L206.8 416.7c40.5 40.5 95.4 63.3 152.7 63.3l8.4 0c0 0 0 0 0 0c29.6 0 57.1-8.9 80-24.2l0 24.2 21.2 0c-28.6 20.2-63.5 32-101.2 32c0 0 0 0 0 0l-8.5 0c-65.8 0-128.9-26.1-175.4-72.6L80.4 335.6 68.7 323.9 64 319.2l0-6.6 0-33.1 0-6.6 4.7-4.7 40-40L120 216.8l11.3 11.3 28.3 28.3L192 288.8 192 48l0-16 16 0 64 0 0-16 0-16zM96 80l0 48 48 0 16 0 0 32-16 0-48 0 0 32 0 16-32 0 0-16 0-32-48 0L0 160l0-32 16 0 48 0 0-48 0-16 32 0 0 16zM336 304l0 32 32 0 16 0 0 32-16 0-32 0 0 32 0 16-32 0 0-16 0-32-32 0-16 0 0-32 16 0 32 0 0-32 0-16 32 0 0 16zm240 64l0 48 48 0 16 0 0 32-16 0-48 0 0 48 0 16-32 0 0-16 0-48-48 0-16 0 0-32 16 0 48 0 0-48 0-16 32 0 0 16z"/></svg>

<svg xmlns="http://www.w3.org/2000/svg" viewBox="0 0 640 512"><!--! Font Awesome Pro 6.4.2 by @fontawesome - https://fontawesome.com License - https://fontawesome.com/license (Commercial License) Copyright 2023 Fonticons, Inc. --><path d="M272 0h16 80 16l0 16 0 16h64 16V48 96h0 64 16v16l0 208H512V128H464V240v16H432V240 128h0V112 64H384V80 240v16H352V240 80 64h0l0-16 0-16H304V48 240v16H272V240 64H224V304v6.6l-4.7 4.7L207.6 327l-11.3 11.3L185 327l-48-48-17-17-24 24v19.9l7 7L206.8 416.7c40.5 40.5 95.4 63.3 152.7 63.3H368l0 0c29.6 0 57.1-8.9 80-24.2V480h21.2c-28.6 20.2-63.5 32-101.2 32l0 0h-8.5c-65.8 0-128.9-26.1-175.4-72.6L80.4 335.6 68.7 323.9 64 319.2v-6.6V279.4v-6.6l4.7-4.7 40-40L120 216.8l11.3 11.3 28.3 28.3L192 288.8V48 32h16 64V16 0zM96 80v48h48 16v32H144 96v32 16H64V192 160H16 0V128H16 64V80 64H96V80zM336 304v32h32 16v32H368 336v32 16H304V400 368H272 256V336h16 32V304 288h32v16zm240 64v48h48 16v32H624 576v48 16H544V496 448H496 480V416h16 48V368 352h32v16z"/></svg>
